X: 6184
T: Caravan, The
R: jig
M: 6/8
K: Gmajor
|:B2d dBd|e2f gfe||d2B BAG|ABA GED:|
|:DBA A2B|d2B AGE||DBA AGE|G2A GED:|

